X: 5512
T: Burke Street March, The
R: waltz
M: 3/4
K: Amajor
A|AG F2 E2|A>B c2 A2|c/d/e dc BA|GF E2- EE|
Ac FG/F/ E2|A>B cA c/d/e|f/g/a ec B>A|A4- A||
A|cd e2 c/B/A|cd e2 cA|c/d/e dc BA|GF E2- EE|
Ac F2 E2|A>B c/B/A ce|fa ec B>A|A4- A||

